X: 424
U:~=!turn!
M:6/8
L:1/8
K:D
g |\
fed Tg2e | c'2a d'2b | Tfef def | efd TcBA | fed g2e | a2f b2g | Tfga Adc | Td3 d2g |
fdf geg | afa bgb | afd Bcd | efd {/c}cBA | AFA Td2A | TB2A Bcd| egf edc | Td3 D2 |]


